X: 15
T:Rope Dance (#91), The
M:6/8
L:1/8
S:Aird's Selections 1782-97
K:G
B/2c/2|def gfg|d2 B Bcd|edc BAG|F2 D DBc|
def gfg|d2 B Bcd|edc BcA|G3 G2:|
|:B|c2 A ABA|B2 G GAG|c2 A ABA|B2 G GBd|
def gfg|d2 B Bcd|edc BcA|G3 G2:||

